X: 18
T: Banshee, The
C: James McMahon
Z: Em G
S: https://thesession.org/tunes/8#setting51498
R: reel
M: 4/4
L: 1/8
K: Gmaj
|:G2GD EDB,D|GFGB d2Bd|eged BAGA|BAGE EDDE|
G2GD EDB,D|GFGB d2Bd|eged BAGA|BAGE EDDE:|
|:eaag efge|dBBA B2Bd|eB(3BBB fBgB|fBBA B2Bd|
eaag efge|dBBA B2Bd|eged BAGA|BAGE EDD2:|

